X:1126
T:Windsor Parade
C:Colin Hume, 1985
L:1/4
M:2/2
R:Reel
S:Colin Hume's website,  colinhume.com  - chords can also be printed below the stave.
Q:1/2=112
%%MIDI chordname 7sus 0 5 7 10
%%MIDI ratio 3 1
K:D
P:A
|: "D"d>c d/A/F/A/ | "G"BA "D"A2 | "Bm"FG/A/ "Em"B/A/G/F/ | "A"EE E>F |\
"G"G>A "Em"BA/G/ | "D"F/E/F/G/ Ad | "G"Bc/d/ "A7"e/d/c/B/ | "D"A"G"d "D"d2 :|
P:B
|: "D"fe/f/ "G"g>f | "A7"e/d/c/B/ AB/c/ | "D"dAFD | "A7sus"A2- "A7"AG |\
"Bm"FE/F/ DB | "Em"GF/G/ "A7"Ec | "D"dA FE/F/ | "D"D2 D2 :|

